public/apps/projets-citoyens/src/images/pictos/man_sign.svg

<svg xmlns="http://www.w3.org/2000/svg" xmlns:xlink="http://www.w3.org/1999/xlink" width="18" height="17" version="1.1" viewBox="0 0 18 17"><title>Shape</title><desc>Created with Sketch.</desc><g id="Symbols" fill="none" fill-rule="evenodd" stroke="none" stroke-width="1"><g id="RECAP-GLOBAL-NOGRAP" fill="#4A90E2" fill-rule="nonzero" transform="translate(-557.000000, -135.000000)"><g id="RECAP-GLOBAL"><g id="noun_791680_cc" transform="translate(69.000000, 132.000000)"><g id="noun_1258541_cc" transform="translate(488.000000, 3.000000)"><path id="Shape" d="M9.58337982,13.1657821 C10.3901386,12.3654502 10.79314,11.3951847 10.79314,10.2547967 C10.79314,9.12064655 10.3899496,8.15038109 9.58337982,7.3438113 C8.776621,6.53743054 7.80654457,6.13442918 6.67239441,6.13442918 C5.53200642,6.13442918 4.55833851,6.53761957 3.75214678,7.3438113 C2.95181481,8.15057012 2.55183786,9.12064655 2.55183786,10.2547967 C2.55183786,11.3951847 2.95162579,12.3654502 3.75214678,13.1657821 C4.55852754,13.9721629 5.53200642,14.3755423 6.67239441,14.3755423 C7.80654457,14.3755423 8.77681003,13.9719739 9.58337982,13.1657821 Z M11.057964,0.113415016 C11.1269582,0.0381830553 11.2186353,0 11.3318613,0 L16.6245621,0 C16.7315502,0 16.8232274,0.0379940303 16.8984593,0.113415016 C16.9740693,0.189025026 17.0122524,0.28353754 17.0122524,0.396952556 L17.0122524,5.68039107 C17.0122524,5.78737924 16.9742584,5.87867832 16.8984593,5.95428833 C16.8232274,6.02989834 16.7315502,6.06770335 16.6245621,6.06770335 L14.8664403,6.06770335 C14.7530253,6.06770335 14.6649396,6.03008737 14.6021833,5.95428833 C14.5201464,5.87867832 14.479317,5.78737924 14.479317,5.68039107 L14.479317,4.29105713 L12.2013764,6.54990619 C12.9512387,7.6526782 13.3262644,8.88757869 13.3262644,10.2547967 C13.3262644,12.0947663 12.6771524,13.663485 11.3791176,14.9615199 C10.0810827,16.2595547 8.51236402,16.9086667 6.67239441,16.9086667 C4.83280285,16.9086667 3.26370611,16.2595547 1.96567125,14.9615199 C0.655349767,13.663485 0,12.0947663 0,10.2546077 C0,8.41501613 0.655349767,6.84289498 1.96548223,5.5386223 C3.26351708,4.24058744 4.83261383,3.5914755 6.67220538,3.5914755 C8.03961243,3.5914755 9.290202,3.97576338 10.4243522,4.74452816 L12.636323,2.53312438 L11.3320503,2.53312438 C11.2186353,2.53312438 11.1271472,2.4955084 11.0581531,2.41970936 C10.9825431,2.34409935 10.94436,2.24958684 10.94436,2.13617182 L10.94436,0.396952556 C10.944171,0.28353754 10.982354,0.189025026 11.057964,0.113415016 Z"/></g></g></g></g></g></svg>

<svg viewBox="0 0 18 17"><path fill="#4A90E2" d="M9.583 13.166c.807-.8 1.21-1.77 1.21-2.911 0-1.134-.403-2.105-1.21-2.911-.806-.807-1.776-1.21-2.91-1.21-1.141 0-2.115.404-2.92 1.21-.801.807-1.201 1.777-1.201 2.91 0 1.141.4 2.111 1.2 2.912.807.806 1.78 1.21 2.92 1.21 1.135 0 2.105-.404 2.911-1.21zM11.058.113A.355.355 0 0111.332 0h5.293a.385.385 0 01.388.397V5.68a.373.373 0 01-.115.274.373.373 0 01-.273.114h-1.759a.324.324 0 01-.264-.114.359.359 0 01-.123-.274V4.291L12.201 6.55c.75 1.103 1.125 2.338 1.125 3.705 0 1.84-.649 3.408-1.947 4.707-1.298 1.298-2.867 1.947-4.707 1.947-1.84 0-3.408-.65-4.706-1.947C.656 13.663 0 12.095 0 10.255c0-1.84.655-3.412 1.965-4.716C3.264 4.24 4.833 3.59 6.672 3.59a6.54 6.54 0 013.752 1.154l2.212-2.212h-1.304a.353.353 0 01-.274-.113.385.385 0 01-.114-.284V.397c0-.113.038-.208.114-.284z"/></svg>
